icons/svgs/check-solid.svg

<svg width="24" height="24" viewBox="0 0 24 24" fill="none" xmlns="http://www.w3.org/2000/svg">
<path d="M20.3594 6.14062C20.8672 6.60938 20.8672 7.42969 20.3594 7.89844L10.3594 17.8984C9.89062 18.4062 9.07031 18.4062 8.60156 17.8984L3.60156 12.8984C3.09375 12.4297 3.09375 11.6094 3.60156 11.1406C4.07031 10.6328 4.89062 10.6328 5.35938 11.1406L9.5 15.2422L18.6016 6.14062C19.0703 5.63281 19.8906 5.63281 20.3594 6.14062Z" fill="black"/>
</svg>

<svg xmlns="http://www.w3.org/2000/svg" width="24" height="24" fill="currentColor" class="icon-check-solid" viewBox="0 0 24 24">
  <mask id="a" width="18" height="14" x="3" y="5" maskUnits="userSpaceOnUse" style="mask-type:alpha">
    <path d="M20.36 6.14c.507.47.507 1.29 0 1.758l-10 10a1.205 1.205 0 0 1-1.758 0l-5-5a1.205 1.205 0 0 1 0-1.757 1.205 1.205 0 0 1 1.757 0L9.5 15.242l9.102-9.101a1.205 1.205 0 0 1 1.757 0"/>
  </mask>
  <g mask="url(#a)">
    <path d="M0 0h24v24H0z"/>
  </g>
</svg>
